app/dist/common/images/chemung-financial.svg

<svg height="18" viewBox="0 0 18 18" width="18" xmlns="http://www.w3.org/2000/svg"><path d="m0 0h18v18h-18z" fill="#fdbe57"/><path d="m4 4h10v10h-10z" fill="#094fa4"/><path d="m12 11h-8v1h9v-3h1v-1h-2z" fill="#feffff"/><path d="m10 8.33h-1a.97.97 0 0 1 -.34.67c-.4-.31-.66-.8-.66-1.33v-.34c0-.53.26-1.02.68-1.33.18.16.3.38.32.67h1c0-.43-.13-.76-.33-1 .63 0 1.28.3 1.33 1h1c0-1.34-1.18-1.67-2.3-1.67-.32 0-.64.04-.93.13-.33-.1-.7-.13-1.07-.13-1.4 0-2.7.81-2.7 2.33v.34c0 1.54 1.24 2.33 2.67 2.33.34 0 .71-.03 1.05-.13.3.09.62.13.95.13 1.07 0 2.33-.33 2.33-1.67h-1c-.06.7-.73 1-1.33 1h-.01c.21-.24.34-.57.34-1zm-2.3 1c-.42-.39-.7-.93-.7-1.66v-.34c0-.71.29-1.27.74-1.66h-.07c-.94 0-1.67.78-1.67 1.66v.34a1.67 1.67 0 0 0 1.7 1.66z" fill="#fff" fill-rule="evenodd"/></svg>

<!-- by TradingView --><svg width="18" height="18" viewBox="0 0 18 18" xmlns="http://www.w3.org/2000/svg"><path fill="#FDBE57" d="M0 0h18v18H0z"/><path fill="#094FA4" d="M4 4h10v10H4z"/><path d="M12 11H4v1h9V9h1V8h-2v3Z" fill="#FEFFFF"/><path fill-rule="evenodd" d="M10 8.33H9a.97.97 0 0 1-.34.67C8.26 8.69 8 8.2 8 7.67v-.34c0-.53.26-1.02.68-1.33.18.16.3.38.32.67h1c0-.43-.13-.76-.33-1 .63 0 1.28.3 1.33 1h1C12 5.33 10.82 5 9.7 5c-.32 0-.64.04-.93.13-.33-.1-.7-.13-1.07-.13C6.3 5 5 5.81 5 7.33v.34C5 9.21 6.24 10 7.67 10c.34 0 .71-.03 1.05-.13.3.09.62.13.95.13C10.74 10 12 9.67 12 8.33h-1c-.06.7-.73 1-1.33 1h-.01c.21-.24.34-.57.34-1Zm-2.3 1C7.28 8.94 7 8.4 7 7.67v-.34c0-.71.29-1.27.74-1.66h-.07C6.73 5.67 6 6.45 6 7.33v.34a1.67 1.67 0 0 0 1.7 1.66Z" fill="#fff"/></svg>
